X:1
T:James Gibb editions
T:Me, me and none but me - Dowland
T:#
%%score [ 1 2 3 4 ]
L:1/8
Q:1/4=108
M:4/4
K:C
V:1 treble nm="Soprano" snm="S"
V:2 treble nm="Alto" snm="A"
V:3 treble-8 nm="Tenor" snm="T"
V:4 bass nm="Bass" snm="B"
V:1
 B2 BB"^Me, me and none but me" B3 B | B6 B2 | c4 d4- | d2 c4"^John Dowland\n(1563-1626)" (Bc) | %4
w: Me, me and none but|me, dart|home, O|* gen- tle *|
w: Like to the sil- ver|Swan, be-|fore my|* death I *|
 d8 |[M:4/4] z AAA A2 B2 | c4 A4- | A4 d4- | d4 c4 | B6 B2 | A8 | z4 d4- | d2 cB A2 G2 | A6 A2 | %14
w: death|and quick- ly, for I|draw too|* long|* this|i- dle|breath:|O|* how I long till|I may|
w: sing:|And yet a- live my|fa- tal|* knell|* I|help to|ring.|Still|* I de- sire from|earth and|
 G3 A B2 c2 | d8 | z4 e4- | e4 e2 (dc) | B2 c2 d4- | d4 d2 (cB) | A3 G GABc | A6 A2 | G8 :| %23
w: fly to heaven a-|bove,|un\-|* to my *|faith ful, un\-|* to my *|faith- ful and be- lov- ed|tur- tle|dove.|
w: earth- ly joys to|fly,|He|* ne- ver *|hap- py lived,|* he ne- ver|hap- py lived, that can- not|love to|die.|
V:2
 G2 GG G2 G2 | G6 G2 | E2 G4 D2 | (E6 G2) | ^F8 |[M:4/4] ^F2 FF F2 G2 | A4 F4- | F4 ^F4 | ^G4 A4- | %9
w: Me, me and none but|me, dart|home, O gen-|tle *|death|and quick- ly, for I|draw too|* long|this i\-|
w: Like to the sil- ver|Swan, be-|fore my death|I *|sing:|And yet a- live my|fa- tal|* knell|I help|
 A4 ^G4 | A8 | z2 G4 FE | D6 EE | ^F2 G4 !courtesy!^F2 | G6 G2 | ^F8 | E2 E4 F2 | G6 G,2- | %18
w: * dle|breath:|O how I|long till I|may fly to|heaven a-|bove,|un- to my|faith- ful|
w: * to|ring.|Still I de-|sire from earth|and earth- ly|joys to|fly,|He ne- ver|hap- py|
 G,2 (A,2 B,2) C2 | D4 E4 | (^F4 G4- | G4) ^F4 | G8 :| %23
w: * and * be-|lov- ed|tur\- *|* tle|dove.|
w: * lived, * that|can- not|love *|* to|die.|
V:3
 d2 dd d3 d | d6 d2 | c4 G4 | G6 G2 | A8 |[M:4/4][K:treble-8] d2 dd d2 d2 | f4 c4 | d6 c2 | B4 A4 | %9
w: Me, me and none but|me, dart|home O|gen- tle|death|and quick- ly, for I|draw too|long, too|long this|
w: Like to the sil- ver|Swan, be-|fore my|death I|sing:|And yet a- live my|fa- tal|knell I|help, I|
 e6 d2 | ^c8 | d4 G2 A2 | B2 (AB) c4- | c2 B2 A2 d2 | B2 (c3 B G2) | A8 | (c4 G4- | %17
w: i- dle|breath:|O how I|long till * I|* may fly to|heaven a\- * *|bove,|un\- *|
w: help to|ring.|Still I de-|sire from * earth|* and earth- ly|joys to * *|fly,|He ne\-|
 G2 (A2 (B2 c2)) | d4 G4 | G6 A2- | A2 c2 B2) G2 | d6 c2 | B8 :| %23
w: * to my *|faith- ful|and be\-|* lov\- * ed|tur- tle|dove.|
w: * ver * *|hap- py|lived, that|* can\- * not|love to|die.|
V:4
 G,2 G,G, G,2 G,2 | G,6 G,2 | C,4 B,,4 | (C,3- D, E,2) E,2 | D,8 |[M:4/4] D,2 D,E, D,2 G,2 | %6
w: Me, me and none but|me, dart|home, O|gen- * * tie|death|and quick- ly, for I|
w: Like to the sil- ver|Swan, be-|fore my|death * * I|sing:|And yet a- live my|
 F,6 F,2 | D,4 D,4 | E,8- | E,4 E,4 | A,,8 | G,,2 G,,G,, G,,4 | G,,6 G,,2 | D,4 D,2 D,2 | E,6 E,2 | %15
w: draw too|long this|i\-|* dle|breath:|O how I long|till I|may fly to|heaven a-|
w: fa- tal|knell I|help|* to|ring.|Still I de- sire|from earth|and earth- ly|joys to|
 D,8 | (C,6 D,2) | E,2 ^F,2 G,4 | (G,,6 (A,,2) | B,,4) C,4 | D,4 E,4 | D,6 D,2 | G,,8 :| %23
w: bove,|un\- *|to my faith-|ful and|* be-|lov- ed|tur- tle|dove.|
w: fly,|He *|ne- ver hap-|py *|lived, that|can- not|love to|die.|

